public/images/Homepage/for-sale.svg

<svg height="496.00107pt" viewBox="0 0 496.00107 496.00107" width="496.00107pt" xmlns="http://www.w3.org/2000/svg"><path d="m488 480h-360v-352h88v24h-40c-4.417969 0-8 3.582031-8 8v208c0 4.417969 3.582031 8 8 8h280c4.417969 0 8-3.582031 8-8v-208c0-4.417969-3.582031-8-8-8h-40v-24h64c3.980469 0 7.355469-2.921875 7.921875-6.863281l8-56c.328125-2.296875-.355469-4.621094-1.875-6.375-1.519531-1.753907-3.726563-2.761719-6.046875-2.761719h-360v-48c0-2.320312-1.007812-4.523438-2.757812-6.042969-1.753907-1.523437-4.082032-2.207031-6.378907-1.8749998l-56 7.9999998c-3.9375.5625-6.863281 3.9375-6.863281 7.917969v40h-48c-4.417969 0-8 3.582031-8 8v56c0 4.417969 3.582031 8 8 8h48v352h-48c-4.417969 0-8 3.582031-8 8s3.582031 8 8 8h480c4.417969 0 8-3.582031 8-8s-3.582031-8-8-8zm-40-312v192h-264v-192zm-48-16h-168v-24h168zm78.777344-80-5.714844 40h-345.0625v-40zm-462.777344 40v-40h40v40zm56-89.0625 40-5.710938v462.773438h-40zm0 0"/><path d="m224 256c4.417969 0 8-3.582031 8-8v-16h16c4.417969 0 8-3.582031 8-8s-3.582031-8-8-8h-16v-8h16c4.417969 0 8-3.582031 8-8s-3.582031-8-8-8h-24c-4.417969 0-8 3.582031-8 8v48c0 4.417969 3.582031 8 8 8zm0 0"/><path d="m280 256h24c4.417969 0 8-3.582031 8-8v-48c0-4.417969-3.582031-8-8-8h-24c-4.417969 0-8 3.582031-8 8v48c0 4.417969 3.582031 8 8 8zm8-48h8v32h-8zm0 0"/><path d="m336 256c4.417969 0 8-3.582031 8-8v-9.597656l9.34375 14.015625c2.453125 3.675781 7.421875 4.667969 11.097656 2.214843 3.675782-2.453124 4.667969-7.417968 2.214844-11.097656l-7.710938-11.535156h1.054688c4.417969 0 8-3.582031 8-8v-24c0-4.417969-3.582031-8-8-8h-24c-4.417969 0-8 3.582031-8 8v48c0 4.417969 3.582031 8 8 8zm8-48h8v8h-8zm0 0"/><path d="m224 320c-4.417969 0-8 3.582031-8 8s3.582031 8 8 8h24c4.417969 0 8-3.582031 8-8v-24c0-4.417969-3.582031-8-8-8h-16v-8h16c4.417969 0 8-3.582031 8-8s-3.582031-8-8-8h-24c-4.417969 0-8 3.582031-8 8v24c0 4.417969 3.582031 8 8 8h16v8zm0 0"/><path d="m280 336c4.417969 0 8-3.582031 8-8v-16h8v16c0 4.417969 3.582031 8 8 8s8-3.582031 8-8v-48c0-4.417969-3.582031-8-8-8h-24c-4.417969 0-8 3.582031-8 8v48c0 4.417969 3.582031 8 8 8zm8-48h8v8h-8zm0 0"/><path d="m336 336h24c4.417969 0 8-3.582031 8-8s-3.582031-8-8-8h-16v-40c0-4.417969-3.582031-8-8-8s-8 3.582031-8 8v48c0 4.417969 3.582031 8 8 8zm0 0"/><path d="m384 336h24c4.417969 0 8-3.582031 8-8s-3.582031-8-8-8h-16v-8h16c4.417969 0 8-3.582031 8-8s-3.582031-8-8-8h-16v-8h16c4.417969 0 8-3.582031 8-8s-3.582031-8-8-8h-24c-4.417969 0-8 3.582031-8 8v48c0 4.417969 3.582031 8 8 8zm0 0"/></svg>

<svg id="for-sale" xmlns="http://www.w3.org/2000/svg" width="496.002" height="496" viewBox="0 0 496.002 496">
  <path id="Path_5542" data-name="Path 5542" d="M488,480H128V128h88v24H176a8,8,0,0,0-8,8V368a8,8,0,0,0,8,8H456a8,8,0,0,0,8-8V160a8,8,0,0,0-8-8H416V128h64a8,8,0,0,0,7.922-6.863l8-56A8,8,0,0,0,488,56H128V8A8,8,0,0,0,118.863.082l-56,8A8,8,0,0,0,56,16V56H8a8,8,0,0,0-8,8v56a8,8,0,0,0,8,8H56V480H8a8,8,0,0,0,0,16H488a8,8,0,0,0,0-16ZM448,168V360H184V168Zm-48-16H232V128H400Zm78.777-80-5.715,40H128V72ZM16,112V72H56v40ZM72,22.938l40-5.711V480H72Zm0,0" fill="#07c7a2"/>
  <path id="Path_5543" data-name="Path 5543" d="M224,256a8,8,0,0,0,8-8V232h16a8,8,0,0,0,0-16H232v-8h16a8,8,0,0,0,0-16H224a8,8,0,0,0-8,8v48A8,8,0,0,0,224,256Zm0,0" fill="#07c7a2"/>
  <path id="Path_5544" data-name="Path 5544" d="M280,256h24a8,8,0,0,0,8-8V200a8,8,0,0,0-8-8H280a8,8,0,0,0-8,8v48A8,8,0,0,0,280,256Zm8-48h8v32h-8Zm0,0" fill="#07c7a2"/>
  <path id="Path_5545" data-name="Path 5545" d="M336,256a8,8,0,0,0,8-8v-9.6l9.344,14.016a8,8,0,1,0,13.313-8.883L358.945,232H360a8,8,0,0,0,8-8V200a8,8,0,0,0-8-8H336a8,8,0,0,0-8,8v48a8,8,0,0,0,8,8Zm8-48h8v8h-8Zm0,0" fill="#07c7a2"/>
  <path id="Path_5546" data-name="Path 5546" d="M224,320a8,8,0,0,0,0,16h24a8,8,0,0,0,8-8V304a8,8,0,0,0-8-8H232v-8h16a8,8,0,0,0,0-16H224a8,8,0,0,0-8,8v24a8,8,0,0,0,8,8h16v8Zm0,0" fill="#07c7a2"/>
  <path id="Path_5547" data-name="Path 5547" d="M280,336a8,8,0,0,0,8-8V312h8v16a8,8,0,0,0,16,0V280a8,8,0,0,0-8-8H280a8,8,0,0,0-8,8v48A8,8,0,0,0,280,336Zm8-48h8v8h-8Zm0,0" fill="#07c7a2"/>
  <path id="Path_5548" data-name="Path 5548" d="M336,336h24a8,8,0,0,0,0-16H344V280a8,8,0,0,0-16,0v48A8,8,0,0,0,336,336Zm0,0" fill="#07c7a2"/>
  <path id="Path_5549" data-name="Path 5549" d="M384,336h24a8,8,0,0,0,0-16H392v-8h16a8,8,0,0,0,0-16H392v-8h16a8,8,0,0,0,0-16H384a8,8,0,0,0-8,8v48A8,8,0,0,0,384,336Zm0,0" fill="#07c7a2"/>
</svg>
